src/static/logos/stackbit-icon.svg

<?xml version="1.0" encoding="UTF-8"?>
<svg width="256px" height="209px" viewBox="0 0 256 209" version="1.1" xmlns="http://www.w3.org/2000/svg" xmlns:xlink="http://www.w3.org/1999/xlink">
    <!-- Generator: Sketch 59.1 (86144) - https://sketch.com -->
    <title>Shape</title>
    <desc>Created with Sketch.</desc>
    <g stroke="none" stroke-width="1" fill="none" fill-rule="evenodd">
        <path d="M227.750331,120.204053 L129.086354,175.148662 L28.4530366,120.204053 C24.711289,118.037778 19.7879369,119.61325 17.818596,123.354998 C15.6523211,127.096746 17.2277938,132.020098 20.9695414,133.989439 L125.344607,191.100323 C127.707816,192.478862 130.661827,192.478862 133.025036,191.100323 L235.43076,133.989439 C239.172508,131.823164 240.551047,127.096746 238.384772,123.354998 C236.218497,119.416316 231.492079,118.037778 227.750331,120.204053 L227.750331,120.204053 Z M40.6629499,83.7712469 L129.086354,33.7499892 L227.553397,90.6639399 C231.295145,92.8302148 236.218497,91.4516762 238.384772,87.7099286 C240.551047,83.9681809 239.172508,79.0448288 235.43076,76.8785539 L133.025036,17.7983283 C130.661827,16.4197897 127.707816,16.4197897 125.147673,17.7983283 L20.7726073,76.8785539 C15.455387,79.8325652 15.455387,87.5129945 20.7726073,90.6639399 L125.147673,149.744165 C128.88942,151.91044 133.812772,150.531902 135.979047,146.790154 C138.145322,143.048407 136.766784,138.125054 133.025036,135.958779 L40.6629499,83.7712469 Z M0.094528361,125.127405 L0.094528361,85.7405877 C-0.69320798,76.6816198 3.44240781,67.4257178 12.5013757,62.3054316 L116.876441,3.22520596 C124.55687,-1.10734392 133.812772,-1.10734392 141.296268,3.42214005 L243.701992,62.5023656 C252.170158,67.4257178 256.699642,76.6816198 255.911905,85.7405877 L255.911905,125.127405 C256.699642,134.383307 251.973224,143.836143 243.308124,148.562561 L140.902399,205.673446 C133.418904,209.809061 124.55687,209.809061 117.073375,205.673446 L12.6983098,148.562561 C4.03321007,143.836143 -0.496273895,134.580241 0.094528361,125.127405 Z" fill="#3EB0FD"></path>
    </g>
</svg>

<svg width="256" height="209" xmlns="http://www.w3.org/2000/svg"><path d="M227.75 120.204l-98.664 54.945-100.633-54.945c-3.742-2.166-8.665-.59-10.634 3.151-2.167 3.742-.591 8.665 3.15 10.634L125.346 191.1a7.649 7.649 0 007.68 0l102.406-57.11c3.742-2.167 5.12-6.893 2.954-10.635-2.167-3.939-6.893-5.317-10.635-3.15zM40.663 83.771l88.423-50.021 98.467 56.914c3.742 2.166 8.665.788 10.832-2.954 2.166-3.742.788-8.665-2.954-10.831l-102.406-59.08c-2.363-1.38-5.317-1.38-7.877 0L20.773 76.878c-5.318 2.954-5.318 10.634 0 13.785l104.375 59.08c3.741 2.166 8.665.788 10.831-2.954 2.166-3.742.788-8.665-2.954-10.831L40.663 83.77zM.095 125.127V85.741C-.693 76.68 3.442 67.426 12.5 62.305l104.375-59.08c7.68-4.332 16.937-4.332 24.42.197l102.406 59.08c8.468 4.924 12.998 14.18 12.21 23.239v39.386c.788 9.256-3.939 18.71-12.604 23.436l-102.406 57.11c-7.483 4.136-16.345 4.136-23.829 0l-104.375-57.11C4.033 143.836-.496 134.58.095 125.127z" fill="#3EB0FD" fill-rule="evenodd"/></svg>
